!!!!SEGMENT: pl-kk--i-545--003_anonim--3-o-sanctissima-o-piissima.krn
!!!cenid: 18xx:4480
!!!COM: Anonim
!!!COM-rismID: pe30004985
!!!CDT:
!!!CNT:
!!!OTL: 3. O sanctissima o piissima
!!!PDT:
!!!AGN: Sacred
!!!YEC: Copyright 2022 Narodowy Instytut Fryderyka Chopina (https://polishscores.org)
!!!YEM: License CC-BY-4.0 (https://creativecommons.org/licenses/by/4.0)
!!!SMS-siglum: PL-Kk
!!!SMS-shelfmark: I.545
!!!SMS-variant:
!!!SMS-altvar:
!!!SMS-shelfwork: 003 W
!!!NIFC-rismSourceID: 1001210831
!!!NIFC-rismChildID: 1001210835
!!!NIFC-islandoraID: pl-kk:17058
!!!URL-pdf-islandora: https://repozytorium.nifc.pl/islandora/object/pl-kk%3A17058/datastream/PDF/view
!!!URL-scan: https://polish.musicsources.pl/pl/lokalizacje/galeria/rekopisy/7172/4 @EN{Scan on Polish Music Sources Website} @PL{Skany w portalu Dziedzictwo Muzyki Polskiej w otwartym dostępie}
!!!IIIF:
!!!ONB-nifc: UWAGA: 2v.
!!!AIN: 1 alto 1 bass 1 soprn 1 tenor
!!!key: G
**kern	**dynam	**kern	**text	**dynam
*part2	*part2	*part1	*part1	*part1
*staff2	*	*staff1	*staff1	*
*ICvox	*	*ICvox	*	*
*Itenor&Ibass	*	*Isoprn&Ialto	*	*
*I"[Voci]	*	*I"[Voci]	*	*
*clefF4	*	*clefG2	*	*
*k[f#]	*	*k[f#]	*	*
*G:	*	*G:	*	*
*M4/4	*	*M4/4	*	*
*met(c)	*	*met(c)	*	*
*>[A,A,B,B]	*>[A,A,B,B]	*>[A,A,B,B]	*>[A,A,B,B]	*>[A,A,B,B]
=1	=1	=1	=1	=1
*>A	*>A	*>A	*>A	*>A
*^	*	*^	*	*
!	!	!LO:DY:a	!	!	!	!
2G/	2GG\	p	2dd/	2b\	O	p
2G/	2C\	.	2ee 2cc/	2ryy	San-	.
=2	=2	=2	=2	=2	=2	=2
4.G/	4.G\	.	4.dd/	4.b\	-ctis-	.
8G/	8G\	.	8cc/	8a\	-si-	.
2G/	2G\	.	(4b/	(4g\	-ma	.
.	.	.	4cc/)	4a\)	.	.
=3	=3	=3	=3	=3	=3	=3
2G/	2GG\	.	2dd/	2b\	o	.
2G/	2C\	.	2ee/	2cc\	pi-	.
=4	=4	=4	=4	=4	=4	=4
4.G/	4.G\	.	4.dd/	4.b\	-is-	.
8G/	8G\	.	8cc/	8a\	-si-	.
2G/	2G\	.	(4b/	(4g\	-ma	.
.	.	.	4cc/)	4a\)	.	.
=5	=5	=5	=5	=5	=5	=5
2G/	2G\	.	2dd/	2b\	dul-	.
2F#/	2D\	.	2dd/	2a\	-cis	.
=6	=6	=6	=6	=6	=6	=6
2A/	2AA\	.	2ee/	2cc#X\	Vir-	.
4A/	4D\	.	4ff#/	4dd\	-go	.
4B/	4GG\	.	4gg/	4ee\	Ma-	.
=7	=7	=7	=7	=7	=7	=7
2A/	2AA\	.	((2ff#/	&(2dd\	-ri-	.
2G/	2ryy	.	4.ee/)	2cc#X\	.	.
.	.	.	8ff#/)&)	.	.	.
=8	=8	=8	=8	=8	=8	=8
1F#	1D	.	1dd	1a	-a	.
!!LO:LB:g=original
=9:|!|:	=9:|!|:	=9:|!|:	=9:|!|:	=9:|!|:	=9:|!|:	=9:|!|:
*>B	*>B	*>B	*>B	*>B	*>B	*>B
2D/	2D\	.	(4.a/	(4.f#\	Ma-	.
.	.	.	8b/)	8g\)	.	.
4D/	4D\	.	4a/	4f#\	-ter	.
4D/	4D\	.	4b/	4g\	a-	.
=10	=10	=10	=10	=10	=10	=10
2F#/	2D\	.	4.cc/	4.a\	-ma-	.
.	.	.	8dd/	8b\	.	.
2F#/	2D\	.	2cc/	2a\	-ta	.
=11	=11	=11	=11	=11	=11	=11
2G/	2G\	.	(4.b/	(4.g\	in-	.
.	.	.	8cc/)	8a\)	-te-	.
4G/	4G\	.	4b/	4g\	-te-	.
4G/	4G\	.	4cc/	4a\	-me-	.
=12	=12	=12	=12	=12	=12	=12
2G/	2GG\	.	(4.dd/	(4.b\	-ra-	.
.	.	.	8ee/)	8cc\)	.	.
2G/	2GG\	.	2dd/	2b\	-ta	.
=13	=13	=13	=13	=13	=13	=13
2G/	2C\	.	(4gg/	(4ee\	O-	.
.	.	.	4ff#/)	4dd\)	.	.
2G/	4E\	.	(4ee/	(4cc\	-ra	.
.	4G\	.	4dd/)	4b\)	.	.
=14	=14	=14	=14	=14	=14	=14
4E/	2C\	.	(4gg/	(4cc\	o-	.
4G/	.	.	4ee/)	4cc\)	.	.
4E/	4C\	.	(4dd/	4b\	-ra	.
4E/	4C\	.	4cc/)	4a\	pro	.
*v	*v	*	*	*	*	*
=15	=15	=15	=15	=15	=15
[2D\	.	(2b/	&(2g\	no-	.
2D\]	.	4.a/	2f#\	.	.
.	.	8b/)&)	.	.	.
=16	=16	=16	=16	=16	=16
*^	*	*	*	*	*
1BB	1GG	.	1g	1d	-bis.	.
*v	*v	*	*	*	*	*
*	*	*v	*v	*	*
==	==	==	==	==
*-	*-	*-	*-	*-
!!!system-decoration: {(s1,s2)}
!!!RDF**kern: i = editorial accidental
!!!RDF**kern: > = above
!!!RDF**kern: < = below
!!!RDF**kern: N = linked
!!!RDF**dynam: > = "dim.", fontstyle= "italic"
!!!ENC: Andrzej Gręziak
!!!EED: Katarzyna Serwa
!!!END: 2023-10-27
!!!EEV: 2024-04-20
